X: 19
T: Banshee, The
C: James McMahon
Z: Zara
S: https://thesession.org/tunes/8#setting52234
R: reel
M: 4/4
L: 1/8
K: Gmaj
|:G3D EDEG|AGAB d2 Bd|eged BAGA|BAGE EDDE|
G2 GD EDEG|AGAB d2 Bd|eged BAGA|1 BAGE EDDE:|2 BAGE ED D2||
|:eaag efge|dBBA B2 Bd|eB ~B2 gBfB|eBBA B2 Bd|
eaag efge|dBBA B2 Bd|eged BAGA|1 BAGE EDD2:|2 BAGE EDDE||

